X: 276
T: The Goddesses
P: Longways for as many as will
%R: Rreel
B: "The Compleat Country Dancing-Master" printed by John Walsh, London ca. 1740
S: 6: CCDM1 http://imslp.org/wiki/The_Compleat_Country_Dancing-Master_(Various) V.1 p.85 #121 (169)
Z: 2013 John Chambers <jc:trillian.mit.edu>
N: The rhythm isn't right between the two strains.
N: The dance is in 11 sections, and two columns; the columns aren't transcribed here.
M: C|
L: 1/8
K: Gdor
% - - - - - - - - - - - - - - - - - - - - - - - - -
[| G2GA B2AG | A2AB c2BA | G2GA B2AG | d2d2 d4 |]\
[| g | f2dc B3d | c2AG ^F3A | B2AG ^FGA^F | G2G2 G3 |]
% - - - - - - - - - - - - - - - - - - - - - - - - -
%%begintext align
%% Lead up a D. forward and back .| That again :|
%% Cast off meet below .| Cast off below meed above :|
%%endtext
%%sep 1 8 500
%%begintext align
%% Men go down on the outside of the We .| Back again :| This as before :|
%%endtext
%%sep 1 8 500
%%begintext align
%% We. as much :| This as before :|
%%endtext
%%sep 1 8 500
%%begintext align
%% Men go quite round about the We :| This as before :|
%%endtext
%%sep 1 8 500
%%begintext align
%% We. as much :| This as before :|
%%endtext
%%sep 1 8 500
%%begintext align
%% Men take Hands and go round .| Back again :| This as before :|
%%endtext
%%sep 1 8 500
%%begintext align
%% We. as much :| This as before :|
%%endtext
%%sep 1 8 500
%%begintext align
%% Then all Hands and go half round .| Back again :| This as before :|
%%endtext
%%sep 1 8 500
%%begintext align
%% Men the S. Hey :| This as before :|
%%endtext
%%sep 1 8 500
%%begintext align
%% We. as much :| This as before :|
%%endtext
%%sep 1 8 500
%%begintext align
%% Then D. Hey :| This as before :|
%%endtext
%%sep 1 8 500

%%sep 1 1 500
%%sep 1 1 500
